X:1
T:Title
%%score 1 2
L:1/8
Q:1/4=90
M:4/4
K:Ab
V:1 treble nm="Strings 1, Soprano"
V:2 bass nm="Strings 1, Bass"
V:1
 [EA]2 [EA]>[EB] [Ac]>[EB] [EA]2 | [Ac]>[EB] [EA][EB] [Ac]4 | [GB]2 [EG]>[EA] [EB]>[EA] [EG]2 | %3
w: 1.~More~ than~ a~ con quer or~|through~ the~ might y~ God,~|More~ than~ a~ con quer or~|
 [Gd]>[Gd] [Ac][GB] [Ac]4 | A2 F>G A>G F2 | [Ec]>[Ec] [EB][=DA] [EG]4 | %6
w: by~ the~ cleans ing~ blood;~|Kept~ by~ a~ pow'r~ di vine,~|walk ing~ in~ the~ light,~|
 [EA]2 [EB]>[EB] [Ec][Ec] [Fd]2[Q:1/4=12] |[Q:1/4=90] [Ec]>[Ec] [Ec][DB] [CA]4 | [Ae]8 | %9
w: More~ than~ a~ con quer or,~|reign ing~ day~ and~ night.~||
 [Fd]4 [Ec]4 | [EB]3 [Ed] [Ec]>[Ec] [Ec]2 | [EB]3 [Ed] [Ec]4 | [Ae]8 | [Fd]4 [Ec]4 | %14
w: |||||
 [EA]2 [EB]>[EB] [Ec][Ec] [Fd]2[Q:1/4=12] |[Q:1/4=90] [Ec]>[Ec] [Ec][DB] [CA]4 |] %16
w: ||
V:2
 [A,C]2 [A,C]>[A,D] [A,E]>[A,D] [A,C]2 | [A,E]>[A,D] [A,C][A,D] [A,E]4 | %2
 [E,D]2 [E,B,]>[E,C] [E,D]>[E,C] [E,B,]2 | [E,E]>[E,E] [E,E][E,E] [A,E]4 | A,2 F,>G, A,>G, F,2 | %5
 A,>A, [G,B,][F,B,] [E,B,]4 | [C,A,]2 [E,G,]>[E,G,] [E,A,][E,A,] [D,A,]2 | %7
 [E,A,]>[E,A,] [E,A,][E,G,] [A,,A,]4 | [A,C]2 [A,C]>[B,D] [CE]>[B,D][K:bass] [A,C]2 | %9
 [D,A,]2 [D,A,]2 [A,,A,]4 | [E,G,][E,G,][E,G,][G,B,] A,>A, A,2 | %11
 [E,G,][E,G,][E,G,][G,B,] A,>A, A,2 | [A,C]2 [A,C]>[B,D] [CE]>[B,D][K:bass] [A,C]2 | %13
 [D,A,]2 [D,A,]2 [A,,A,]4 | [C,A,]2 [E,G,]>[E,G,] [E,A,][E,A,] [D,A,]2 | %15
 [E,A,]>[E,A,] [E,A,][E,G,] [A,,A,]4 |] %16

